static/check-shield.svg

<svg width="38" height="37" viewBox="0 0 38 37" fill="none" xmlns="http://www.w3.org/2000/svg">
<path fill-rule="evenodd" clip-rule="evenodd" d="M3.06485 0.27356H34.9449C36.5069 0.280984 37.7682 1.28617 37.7682 2.52356V11.9181C37.8123 22.0718 30.7622 31.4119 19.4498 36.1866C19.3127 36.244 19.1599 36.2739 19.0049 36.2736C18.8502 36.2735 18.698 36.2431 18.5618 36.1851C7.24771 31.4123 0.196371 22.0721 0.241549 11.9181V2.52356C0.241521 1.28617 1.50283 0.280984 3.06485 0.27356ZM16.7326 22.241L30.1769 12.191C30.6687 11.8226 30.8751 11.2743 30.7182 10.7527C30.5613 10.2311 30.0651 9.81538 29.4164 9.66219C28.7677 9.509 28.0651 9.6416 27.5733 10.01L15.4639 19.0505L12.279 16.5005C11.8059 16.1092 11.1031 15.9504 10.4405 16.0851C9.77801 16.2199 9.2587 16.6272 9.08206 17.1507C8.90542 17.6741 9.09891 18.2324 9.58821 18.611L14.0816 22.205C14.8055 22.7869 15.984 22.8029 16.7326 22.241Z" fill="#1D4283"/>
</svg>

<svg width="38" height="37" fill="none" xmlns="http://www.w3.org/2000/svg"><path fill-rule="evenodd" clip-rule="evenodd" d="M3.065.274h31.88c1.562.007 2.823 1.012 2.823 2.25v9.394c.044 10.154-7.006 19.494-18.318 24.269a1.152 1.152 0 0 1-.888-.002C7.248 31.412.196 22.072.242 11.918V2.524c0-1.238 1.26-2.243 2.823-2.25zM16.733 22.24l13.444-10.05c.492-.368.698-.917.541-1.438-.157-.522-.653-.938-1.302-1.09-.648-.154-1.35-.021-1.843.347l-12.11 9.04-3.184-2.55c-.473-.39-1.176-.55-1.838-.415-.663.135-1.182.542-1.359 1.066-.177.523.017 1.081.506 1.46l4.494 3.594c.723.582 1.902.598 2.65.036z" fill="#1D4283"/></svg>
